src/assets/IconVotingActive.svg

<svg width="557" height="557" viewBox="0 0 557 557" fill="none" xmlns="http://www.w3.org/2000/svg"><path fill-rule="evenodd" clip-rule="evenodd" d="M278.5 557C432.311 557 557 432.311 557 278.5S432.311 0 278.5 0 0 124.689 0 278.5 124.689 557 278.5 557z" fill="url(#paint0_linear)"/><path d="M235.5 353.768c0 8.816 7.223 16.042 16.045 16.042h83.188l-10.673 50.907a17.947 17.947 0 004.887 16.511L341.704 450l79.235-79.233c4.348-4.335 7.061-10.333 7.061-16.999V249.534c0-13.314-10.744-24.062-24.058-24.062H295.654a23.977 23.977 0 00-22.136 14.668l-36.329 84.869c-1.042 2.71-1.689 5.6-1.689 8.725v20.052-.018z" fill="#fff" fill-opacity=".6"/><path d="M312.5 206.232c-.049-8.875-7.218-16.042-16.045-16.042h-83.188l10.673-50.907a17.947 17.947 0 00-4.887-16.511L206.296 110l-79.235 79.233A23.948 23.948 0 00120 206.232v104.234c0 13.314 10.744 24.062 24.058 24.062h108.288a23.977 23.977 0 0022.136-14.668l36.329-84.833c1.042-2.728 1.689-5.618 1.689-8.743v-20.052z" fill="#fff"/><defs><linearGradient id="paint0_linear" x1="172.727" y1="782.523" x2="719.023" y2="350.945" gradientUnits="userSpaceOnUse"><stop stop-color="#FFB36D"/><stop offset="1" stop-color="#F88"/></linearGradient></defs></svg>

<svg width="557" height="557" viewBox="0 0 557 557" fill="none" xmlns="http://www.w3.org/2000/svg">
<g id="Group 74">
<g id="Group 63">
<path id="Oval Copy 8" fill-rule="evenodd" clip-rule="evenodd" d="M278.5 557C432.311 557 557 432.311 557 278.5C557 124.689 432.311 0 278.5 0C124.689 0 0 124.689 0 278.5C0 432.311 124.689 557 278.5 557Z" fill="url(#paint0_linear)"/>
<path id="Path" d="M235.5 353.768C235.5 362.584 242.723 369.81 251.545 369.81H334.733L324.06 420.717C322.772 426.699 324.615 432.928 328.947 437.228L341.704 450L420.939 370.767C425.287 366.432 428 360.434 428 353.768V249.534C428 236.22 417.256 225.472 403.942 225.472H295.654C285.718 225.472 277.148 231.487 273.518 240.14L237.189 325.009C236.147 327.719 235.5 330.609 235.5 333.734V353.786L235.5 353.768Z" fill="white" fill-opacity="0.6"/>
<path id="Path_2" d="M312.5 206.232C312.451 197.357 305.282 190.19 296.455 190.19H213.267L223.94 139.283C225.228 133.301 223.385 127.072 219.053 122.772L206.296 110L127.061 189.233C122.713 193.568 120 199.584 120 206.232V310.466C120 323.78 130.744 334.528 144.058 334.528H252.346C262.282 334.528 270.852 328.513 274.482 319.86L310.811 235.027C311.853 232.299 312.5 229.409 312.5 226.284V206.232Z" fill="white"/>
</g>
</g>
<defs>
<linearGradient id="paint0_linear" x1="172.727" y1="782.523" x2="719.023" y2="350.945" gradientUnits="userSpaceOnUse">
<stop stop-color="#FFB36D"/>
<stop offset="1" stop-color="#FF8888"/>
</linearGradient>
</defs>
</svg>
